X:1
T:Title
%%score { ( 1 3 ) | 2 }
L:1/8
M:4/4
K:F
V:1 treble nm="Grand Piano"
V:3 treble 
V:2 bass 
V:1
 z4 z2[Q:1/4=100] [CFA]>[CGB] | [CAc]>[C_A=B] [C=Ac]>[C_AB] [C=Ac]2 [_Bd]2 | %2
 [Ac]2 [GB]4 [EG]>[FA] | [GB]>[^FA] [GB]>[FA] [CGB]2 [CAc]2 | [CFA]6 [CFA]>[CGB] | %5
 [CAc]>[C_A=B] [C=Ac]>[C_AB] [C=Ac]2 [_Ad]2 | [Ge]2 [EGc]2 [CEG]2 [G,EG]>[G,EG] | %7
 [C^FA]>[CF=B] [CFc]>[Fd] [Gc]2 [B,=FB]2 |[M:3/4] [Ec]6 |[M:1/4] [Af]2 | %10
[M:4/4] [Be]2 [Bd]2 [Gc]2 [EB]2 |[M:5/8] z2 [Ac]3 |[M:3/8] AG>F |[M:4/4] z2 [Gc]4 z2 | %14
[M:3/4] z2 c4 |[M:1/4] [Acf]2 |[M:4/4] [Be]2 [Bd]2 [Ec]2 [EB]2 | [FA]>[GB] [Ac]4 [Bd]>[Bd] | %18
 [Ac]2 [Af]2 [EA]2 [EG]2 |[M:3/4] [CF]6 |] %20
V:2
 z4 z2 F,>F, | F,>F, F,>F, F,2 [F,C]2 | [G,C]2 [C,C]4 [C,C]>[C,C] | %3
 [C,C]>[C,C] [C,C]>[C,C] D,2 E,2 | F,6 F,>F, | F,>F, F,>F, F,2 [^F,C]2 | [G,C]2 G,2 G,,2 G,,>G,, | %7
 D,>D, D,>[D,C] [G,B,]2 G,,2 |[M:3/4] [C,G,]6 |[M:1/4] [C,C]2 | %10
[M:4/4] [C,C]2 [C,C]2 [E,C]2 [E,C]2 |[M:5/8] [F,C]>[C,C][F,F]>A,[K:treble]C |[M:3/8] FE>D | %13
[M:4/4][K:bass] [E,C]>[C,C] [E,E]>G, C[K:treble]G F>E |[M:3/4][K:bass] [F,C]>[C,C] [F,F]>A, C2 | %15
[M:1/4] [C,C]2 |[M:4/4] [C,C]2 [C,C]2 [D,C]2 [E,C]2 | [F,C]>[F,C] [F,C]4 [B,,B,]>[B,,B,] | %18
 [C,A,]2 [D,A,]2 [C,C]2 [C,B,]2 |[M:3/4] [F,A,]6 |] %20
V:3
 x8 | x8 | x8 | x8 | x8 | x8 | x8 | x8 |[M:3/4] x6 |[M:1/4] x2 |[M:4/4] x8 | %11
[M:5/8] [FA]>[GB] z z/ F/ z |[M:3/8] x3 |[M:4/4] E>[EG] z z/ E/ z B A>G | %14
[M:3/4] F>[FA] z z/ F/- F2 |[M:1/4] x2 |[M:4/4] x8 | x8 | x8 |[M:3/4] x6 |] %20

